X:101
T:Gillan's Apples  
B:CRE2.007 (ÃÂÃÂÃÂÃÂ¡llaÃÂÃÂÃÂÃÂ­ UÃÂÃÂÃÂÃÂ­ GhiollÃÂÃÂÃÂÃÂ¡in)
F:file ID: cre.2/101gill_a
N:Also played in G.
L:1/8
M:6/8
R:jig
Q:160
K:D
Bc|d3 F2E|DFE DFA|Bc/d/B BAF|DFD EEE|
A2d dAF|DFA d2e|fed cdB|1 BAF A:|2 BAA A2||
|:e|c2e c2e|cee ecA|dBB fBB|d2f fed|
ceA ceA|cdc ece|fed cdB|1 cAA A2:|2 cAF A3|]

%%%

